icons/themes/default/puzzle.svg

<svg viewBox="0 0 20 20" fill="none" xmlns="http://www.w3.org/2000/svg">
<path d="M3 6.78572C3 5.83894 3.75976 5.07143 4.69697 5.07143H7.45238C7.57073 5.07143 7.66667 4.97549 7.66667 4.85714V4.85714C7.66667 3.55533 8.71134 2.5 10 2.5C11.2887 2.5 12.3333 3.55533 12.3333 4.85714V4.85714C12.3333 4.97549 12.4293 5.07143 12.5476 5.07143H15.303C16.2402 5.07143 17 5.83894 17 6.78572V8.71645C17 8.8336 16.905 8.92857 16.7879 8.92857V8.92857C15.4992 8.92857 14.4545 9.9839 14.4545 11.2857C14.4545 12.5875 15.4992 13.6429 16.7879 13.6429V13.6429C16.905 13.6429 17 13.7378 17 13.855V15.7857C17 16.7325 16.2402 17.5 15.303 17.5H4.69697C3.75976 17.5 3 16.7325 3 15.7857V6.78572Z" stroke="currentColor" stroke-width="1.1"/>
</svg>

<svg xmlns="http://www.w3.org/2000/svg" fill="none" viewBox="0 0 20 20">
  <path stroke="currentColor" stroke-width="1.1" d="M3 6.786c0-.947.76-1.715 1.697-1.715h2.755a.214.214 0 0 0 .215-.214C7.667 3.555 8.71 2.5 10 2.5c1.289 0 2.333 1.055 2.333 2.357 0 .118.096.214.215.214h2.755c.937 0 1.697.768 1.697 1.715v1.93a.212.212 0 0 1-.212.213c-1.289 0-2.334 1.055-2.334 2.357 0 1.302 1.045 2.357 2.334 2.357.117 0 .212.095.212.212v1.93c0 .948-.76 1.715-1.697 1.715H4.697A1.706 1.706 0 0 1 3 15.786v-9Z"/>
</svg>
